X:53
T: Wiedersehen an der Bahre
N: Q0056I
O: Mitteleuropa, Deutschland (BRD) , Rheinpfalz, Hunsrueck
N: Einzige vollstaendige Melodie aus einer etwas wirren Melodietafel.
N: Eingeklammerte Noten nicht gespielt. Pause am Liedende korrigert.
R: Ballade, Abschied, Enttaeuschung, Tod, Selbstmord
M: 3/4
L: 1/8
K: F
FA | c3cde | f3
cde | f2e2d2 | c3
cfe | d3cBd | c3
AFG | Acc2B2 | A2z
cfe | d3cBd | c3
AFG | Acc2B2 | A2z2

@@@ Tune index: 929
